build/assets/images/clipboard.svg

<svg width="64" height="64" viewBox="0 0 64 64" fill="none" xmlns="http://www.w3.org/2000/svg">
<path d="M42.1934 10.3772H47.5267C48.9412 10.3772 50.2977 10.9391 51.2979 11.9393C52.2981 12.9395 52.86 14.296 52.86 15.7105V53.0438C52.86 54.4583 52.2981 55.8149 51.2979 56.8151C50.2977 57.8153 48.9412 58.3772 47.5267 58.3772H15.5267C14.1122 58.3772 12.7557 57.8153 11.7555 56.8151C10.7553 55.8149 10.1934 54.4583 10.1934 53.0438V15.7105C10.1934 14.296 10.7553 12.9395 11.7555 11.9393C12.7557 10.9391 14.1122 10.3772 15.5267 10.3772H20.86" stroke="white" stroke-width="4" stroke-linecap="round" stroke-linejoin="round"/>
<path d="M39.527 5.04391H23.527C22.0543 5.04391 20.8604 6.23782 20.8604 7.71058V13.0439C20.8604 14.5167 22.0543 15.7106 23.527 15.7106H39.527C40.9998 15.7106 42.1937 14.5167 42.1937 13.0439V7.71058C42.1937 6.23782 40.9998 5.04391 39.527 5.04391Z" stroke="white" stroke-width="4" stroke-linecap="round" stroke-linejoin="round"/>
</svg>

<svg width="64" height="64" fill="none" xmlns="http://www.w3.org/2000/svg"><path d="M42.193 10.377h5.334a5.333 5.333 0 015.333 5.333v37.334a5.333 5.333 0 01-5.333 5.333h-32a5.333 5.333 0 01-5.334-5.333V15.71a5.333 5.333 0 015.334-5.334h5.333" stroke="#fff" stroke-width="4" stroke-linecap="round" stroke-linejoin="round"/><path d="M39.527 5.044h-16A2.667 2.667 0 0020.86 7.71v5.333a2.667 2.667 0 002.667 2.667h16a2.667 2.667 0 002.667-2.667V7.71a2.667 2.667 0 00-2.667-2.667z" stroke="#fff" stroke-width="4" stroke-linecap="round" stroke-linejoin="round"/></svg>
